;FLAVOR:Marlin
;TIME:6950
;Filament used: 4.85683m
;Layer height: 0.2
;MINX:73.118
;MINY:90.896
;MINZ:0.24
;MAXX:139.8
;MAXY:129.101
;MAXZ:48.04
;Generated with Cura_SteamEngine main
M140 S50
M105
M190 S50
M104 S220
M105
M109 S220
M82 ;absolute extrusion mode
M201 X500.00 Y500.00 Z100.00 E5000.00 ;Setup machine max acceleration
M203 X500.00 Y500.00 Z10.00 E50.00 ;Setup machine max feedrate
M204 P500.00 R1000.00 T500.00 ;Setup Print/Retract/Travel acceleration
M205 X8.00 Y8.00 Z0.40 E5.00 ;Setup Jerk
M220 S100 ;Reset Feedrate
M221 S100 ;Reset Flowrate

G28 ;Home

G92 E0 ;Reset Extruder
G1 Z2.0 F3000 ;Move Z Axis up
G1 X10.1 Y20 Z0.28 F5000.0 ;Move to start position
G1 X10.1 Y200.0 Z0.28 F1500.0 E15 ;Draw the first line
G1 X10.4 Y200.0 Z0.28 F5000.0 ;Move to side a little
G1 X10.4 Y20 Z0.28 F1500.0 E30 ;Draw the second line
G92 E0 ;Reset Extruder
G1 Z2.0 F3000 ;Move Z Axis up

G92 E0
G92 E0
G1 F1500 E-5
;LAYER_COUNT:240
;LAYER:0
M107
G0 F6000 X77.738 Y95.277 Z0.24
G0 X73.119 Y105.596
;TYPE:SKIRT
G1 F1500 E0
G1 F1200 X73.13 Y104.87 E0.02898
G1 X73.184 Y103.934 E0.0664
G1 X73.299 Y103.08 E0.10079
G1 X73.478 Y102.159 E0.13824
G1 X73.645 Y101.54 E0.16383
G1 X73.738 Y101.231 E0.17671
G1 X74.046 Y100.345 E0.21415
G1 X74.485 Y99.379 E0.25649
G1 X74.621 Y99.114 E0.26838
G1 X75.084 Y98.298 E0.30583
G1 X75.668 Y97.455 E0.34676
G1 X75.879 Y97.179 E0.36063
G1 X76.48 Y96.459 E0.39806
G1 X77.14 Y95.793 E0.43548
G1 X77.738 Y95.277 E0.46701
G1 X78.096 Y94.99 E0.48532
G1 X78.852 Y94.436 E0.52273
G1 X79.652 Y93.947 E0.56015
G1 X80.534 Y93.51 E0.59944
G1 X80.935 Y93.333 E0.61693
G1 X81.808 Y92.991 E0.65435
G1 X82.708 Y92.725 E0.69181
G1 X84.025 Y92.479 E0.74528
G1 X84.865 Y92.387 E0.77901
G1 X85.834 Y92.313 E0.8178
G1 X107.986 Y90.966 E1.70356
G1 X109.506 Y90.902 E1.76428
G1 X110.249 Y90.896 E1.79394
G1 X110.672 Y90.902 E1.81082
G1 X111.212 Y90.923 E1.83239
G1 X112.079 Y90.978 E1.86707
G1 X112.759 Y91.042 E1.89433
G1 X113.663 Y91.156 E1.93069
G1 X114.119 Y91.224 E1.94909
G1 X114.717 Y91.325 E1.9733
G1 X115.455 Y91.469 E2.00331
G1 X116.493 Y91.714 E2.04588
G1 X117.401 Y91.962 E2.08345
G1 X118.018 Y92.154 E2.10924
G1 X118.727 Y92.398 E2.13916
G1 X119.16 Y92.557 E2.15757
G1 X120.015 Y92.892 E2.19422
G1 X120.638 Y93.155 E2.22121
G1 X121.04 Y93.34 E2.23888
G1 X121.714 Y93.667 E2.26878
G1 X122.2 Y93.918 E2.29061
G1 X122.667 Y94.174 E2.31186
G1 X123.115 Y94.434 E2.33254
G1 X123.83 Y94.871 E2.36598
G1 X124.718 Y95.45 E2.40829
G1 X125.301 Y95.856 E2.43665
G1 X125.715 Y96.165 E2.45727
G1 X126.325 Y96.642 E2.48817
G1 X126.755 Y96.996 E2.5104
G1 X127.176 Y97.361 E2.53264
G1 X127.69 Y97.828 E2.56036
G1 X127.975 Y98.098 E2.57603
G1 X128.469 Y98.586 E2.60374
G1 X129.019 Y99.158 E2.63541
G1 X129.701 Y99.92 E2.67623
G1 X130.072 Y100.364 E2.69932
G1 X130.628 Y101.067 E2.7351
G1 X131.082 Y101.672 E2.76529
G1 X131.393 Y102.116 E2.78692
G1 X131.921 Y102.925 E2.82548
G1 X132.37 Y103.661 E2.85989
G1 X132.823 Y104.482 E2.89731
G1 X133.325 Y105.655 E2.94824
G1 X133.451 Y106.004 E2.96305
G1 X133.732 Y106.899 E3.00049
G1 X133.935 Y107.814 E3.0379
G1 X134.074 Y108.914 E3.08215
G1 X134.105 Y109.326 E3.09864
G1 X134.135 Y110.263 E3.13605
G1 X134.086 Y111.2 E3.1735
G1 X133.957 Y112.129 E3.21094
G1 X133.749 Y113.043 E3.24835
G1 X133.579 Y113.608 E3.2719
G1 X133.431 Y114.055 E3.29069
G1 X133.098 Y114.932 E3.32813
G1 X132.692 Y115.778 E3.36559
G1 X132.415 Y116.266 E3.38798
G1 X132.133 Y116.735 E3.40982
G1 X131.857 Y117.171 E3.43042
G1 X131.24 Y118.096 E3.4748
G1 X130.736 Y118.791 E3.50906
G1 X130.206 Y119.465 E3.54328
G1 X129.92 Y119.814 E3.56129
G1 X129.537 Y120.262 E3.58482
G1 X128.944 Y120.919 E3.62014
G1 X128.625 Y121.255 E3.63863
G1 X128.262 Y121.62 E3.65918
G1 X127.449 Y122.389 E3.70384
G1 X126.982 Y122.802 E3.72873
G1 X126.287 Y123.382 E3.76486
G1 X125.804 Y123.767 E3.78951
G1 X125.343 Y124.107 E3.81237
G1 X124.369 Y124.779 E3.8596
G1 X123.595 Y125.277 E3.89633
G1 X122.956 Y125.664 E3.92615
G1 X122.529 Y125.904 E3.9457
G1 X121.91 Y126.234 E3.9737
G1 X121.462 Y126.46 E3.99372
G1 X120.985 Y126.687 E4.01481
G1 X120.491 Y126.907 E4.03639
G1 X119.745 Y127.218 E4.06865
G1 X118.949 Y127.525 E4.1027
G1 X118.542 Y127.669 E4.11993
G1 X117.662 Y127.954 E4.15685
G1 X116.761 Y128.219 E4.19433
G1 X115.878 Y128.439 E4.23065
G1 X114.806 Y128.66 E4.27434
G1 X114.093 Y128.783 E4.30322
G1 X113.168 Y128.911 E4.34049
G1 X112.758 Y128.96 E4.35697
G1 X112.058 Y129.024 E4.38502
G1 X111.182 Y129.076 E4.42005
G1 X110.488 Y129.099 E4.44776
G1 X109.834 Y129.101 E4.47387
G1 X108.316 Y129.055 E4.53448
G1 X85.764 Y127.681 E5.43625
G1 X84.917 Y127.618 E5.47015
G1 X83.61 Y127.441 E5.52279
G1 X83.144 Y127.349 E5.54175
G1 X82.233 Y127.128 E5.57916
G1 X81.344 Y126.83 E5.61658
G1 X80.625 Y126.526 E5.64774
G1 X80.267 Y126.359 E5.66351
G1 X79.435 Y125.926 E5.70094
G1 X78.642 Y125.425 E5.73838
G1 X77.847 Y124.817 E5.77832
G1 X77.524 Y124.546 E5.79515
G1 X76.832 Y123.913 E5.83258
G1 X76.196 Y123.223 E5.87004
G1 X75.538 Y122.362 E5.91329
G1 X75.265 Y121.966 E5.93249
G1 X74.766 Y121.172 E5.96991
G1 X74.336 Y120.339 E6.00733
G1 X73.983 Y119.482 E6.04432
G1 X73.847 Y119.108 E6.06021
G1 X73.565 Y118.214 E6.09762
G1 X73.37 Y117.357 E6.1327
G1 X73.313 Y117.05 E6.14516
G1 X73.181 Y116.121 E6.18261
G1 X73.134 Y115.394 E6.21169
G1 X73.118 Y114.73 E6.2382
G1 X73.119 Y105.596 E6.60276
G0 F6000 X73.519 Y105.602
G1 F1200 X73.53 Y104.876 E6.63174
G1 X73.584 Y103.957 E6.66848
G1 X73.695 Y103.139 E6.70143
G1 X73.871 Y102.235 E6.73818
G1 X74.028 Y101.655 E6.76217
G1 X74.121 Y101.346 E6.77505
G1 X74.424 Y100.477 E6.81178
G1 X74.84 Y99.561 E6.85193
G1 X74.976 Y99.296 E6.86382
G1 X75.432 Y98.496 E6.90057
G1 X75.986 Y97.698 E6.93934
G1 X76.197 Y97.422 E6.95321
G1 X76.787 Y96.716 E6.98993
G1 X77.437 Y96.063 E7.02671
G1 X77.988 Y95.59 E7.05569
G1 X78.346 Y95.303 E7.074
G1 X79.088 Y94.758 E7.11075
G1 X79.875 Y94.281 E7.14748
G1 X80.696 Y93.876 E7.18401
G1 X81.097 Y93.699 E7.20151
G1 X81.954 Y93.364 E7.23823
G1 X82.838 Y93.105 E7.275
G1 X84.074 Y92.876 E7.32517
G1 X84.896 Y92.786 E7.35817
G1 X85.859 Y92.713 E7.39672
G1 X108.179 Y91.357 E8.2892
G1 X109.511 Y91.302 E8.34241
G1 X110.243 Y91.296 E8.37163
G1 X110.666 Y91.302 E8.38851
G1 X111.187 Y91.322 E8.40932
G1 X112.054 Y91.377 E8.444
G1 X112.709 Y91.439 E8.47025
G1 X113.613 Y91.553 E8.50662
G1 X114.052 Y91.618 E8.52433
G1 X114.65 Y91.719 E8.54854
G1 X115.375 Y91.861 E8.57802
G1 X116.398 Y92.103 E8.61998
G1 X117.293 Y92.347 E8.65701
G1 X117.887 Y92.532 E8.68184
G1 X118.596 Y92.776 E8.71176
G1 X119.014 Y92.93 E8.72954
G1 X119.869 Y93.265 E8.76619
G1 X120.478 Y93.522 E8.79258
G1 X120.865 Y93.7 E8.80958
G1 X121.539 Y94.027 E8.83948
G1 X122.007 Y94.269 E8.86051
G1 X122.474 Y94.525 E8.88176
G1 X122.907 Y94.776 E8.90174
G1 X123.944 Y95.418 E8.95042
G1 X124.777 Y95.975 E8.99041
G1 X125.469 Y96.48 E9.0246
G1 X126.079 Y96.957 E9.05551
G1 X126.493 Y97.298 E9.07692
G1 X126.914 Y97.663 E9.09916
G1 X127.42 Y98.122 E9.12642
G1 X127.693 Y98.383 E9.1415
G1 X128.42 Y99.108 E9.18247
G1 X129.004 Y99.733 E9.21662
G1 X129.401 Y100.184 E9.2406
G1 X129.758 Y100.612 E9.26284
G1 X130.314 Y101.315 E9.29861
G1 X130.76 Y101.91 E9.32829
G1 X131.06 Y102.338 E9.34915
G1 X131.579 Y103.134 E9.38708
G1 X132.028 Y103.87 E9.42149
G1 X132.473 Y104.676 E9.45824
G1 X132.949 Y105.79 E9.50659
G1 X133.075 Y106.139 E9.5214
G1 X133.35 Y107.018 E9.55816
G1 X133.547 Y107.917 E9.59489
G1 X133.675 Y108.944 E9.6362
G1 X133.706 Y109.356 E9.65269
G1 X133.735 Y110.276 E9.68942
G1 X133.684 Y111.195 E9.72616
G1 X133.554 Y112.106 E9.76289
G1 X133.345 Y113.003 E9.79965
G1 X133.199 Y113.483 E9.81967
G1 X133.051 Y113.93 E9.83847
G1 X132.724 Y114.79 E9.87519
G1 X132.323 Y115.619 E9.91194
G1 X132.072 Y116.06 E9.93219
G1 X131.79 Y116.529 E9.95404
G1 X131.524 Y116.949 E9.97388
G1 X130.907 Y117.874 E10.01826
G1 X130.421 Y118.544 E10.05129
G1 X129.891 Y119.218 E10.08551
G1 X129.616 Y119.554 E10.10284
G1 X129 Y120.266 E10.14042
G1 X128.649 Y120.65 E10.16118
G1 X128.341 Y120.973 E10.179
G1 X127.978 Y121.338 E10.19954
G1 X127.176 Y122.097 E10.24362
G1 X126.726 Y122.495 E10.26759
G1 X126.031 Y123.075 E10.30372
G1 X125.558 Y123.451 E10.32784
G1 X125.114 Y123.779 E10.34987
G1 X124.153 Y124.442 E10.39647
G1 X123.379 Y124.94 E10.4332
G1 X122.752 Y125.32 E10.46246
G1 X122.341 Y125.551 E10.48128
G1 X121.722 Y125.881 E10.50928
G1 X121.29 Y126.098 E10.52857
G1 X120.813 Y126.325 E10.54966
G1 X120.337 Y126.538 E10.57047
G1 X119.591 Y126.849 E10.60273
G1 X118.808 Y127.15 E10.63621
G1 X118.416 Y127.289 E10.65281
G1 X117.549 Y127.57 E10.68919
G1 X116.648 Y127.835 E10.72667
G1 X115.797 Y128.048 E10.76168
G1 X114.725 Y128.269 E10.80537
G1 X114.038 Y128.387 E10.83319
G1 X113.113 Y128.515 E10.87046
G1 X112.718 Y128.562 E10.88634
G1 X112.032 Y128.625 E10.91383
G1 X111.519 Y128.659 E10.93435
G1 X110.475 Y128.699 E10.97605
G1 X109.845 Y128.701 E11.0012
G1 X108.34 Y128.655 E11.06129
G1 X85.639 Y127.271 E11.96902
G1 X84.947 Y127.219 E11.99672
G1 X83.688 Y127.048 E12.04743
G1 X83.222 Y126.956 E12.06639
G1 X82.327 Y126.739 E12.10314
G1 X81.455 Y126.445 E12.13987
G1 X80.794 Y126.163 E12.16855
G1 X80.436 Y125.996 E12.18432
G1 X79.619 Y125.571 E12.22108
G1 X78.843 Y125.077 E12.25779
G1 X78.104 Y124.51 E12.29497
G1 X77.781 Y124.239 E12.3118
G1 X77.102 Y123.618 E12.34852
G1 X76.48 Y122.939 E12.38527
G1 X75.867 Y122.135 E12.42563
G1 X75.594 Y121.739 E12.44482
G1 X75.105 Y120.959 E12.48157
G1 X74.685 Y120.14 E12.5183
G1 X74.359 Y119.345 E12.5526
G1 X74.223 Y118.971 E12.56848
G1 X73.946 Y118.093 E12.60523
G1 X73.763 Y117.284 E12.63833
G1 X73.706 Y116.977 E12.65079
G1 X73.578 Y116.065 E12.68755
G1 X73.533 Y115.382 E12.71487
G1 X73.518 Y114.73 E12.7409
G1 X73.519 Y105.602 E13.10522
G0 F6000 X73.919 Y105.608
G1 F1200 X73.93 Y104.882 E13.1342
G1 X73.984 Y103.981 E13.17022
G1 X74.091 Y103.198 E13.20176
G1 X74.264 Y102.312 E13.23779
G1 X74.411 Y101.77 E13.26021
G1 X74.504 Y101.461 E13.27309
G1 X74.802 Y100.609 E13.30911
G1 X75.196 Y99.744 E13.34705
G1 X75.332 Y99.479 E13.35894
G1 X75.78 Y98.694 E13.39501
G1 X76.304 Y97.941 E13.43163
G1 X76.515 Y97.665 E13.44549
G1 X77.094 Y96.973 E13.4815
G1 X77.733 Y96.334 E13.51757
G1 X78.238 Y95.902 E13.5441
G1 X78.596 Y95.615 E13.56241
G1 X79.325 Y95.082 E13.59845
G1 X80.098 Y94.615 E13.6345
G1 X80.857 Y94.242 E13.66825
G1 X81.258 Y94.065 E13.68575
G1 X82.1 Y93.737 E13.72181
G1 X82.967 Y93.485 E13.75785
G1 X84.123 Y93.273 E13.80476
G1 X84.927 Y93.185 E13.83704
G1 X85.883 Y93.112 E13.8753
G1 X108.197 Y91.756 E14.76755
G1 X109.517 Y91.702 E14.82027
G1 X110.238 Y91.696 E14.84905
G1 X110.661 Y91.702 E14.86594
G1 X111.162 Y91.721 E14.88595
G1 X112.029 Y91.776 E14.92062
G1 X112.659 Y91.836 E14.94588
G1 X113.563 Y91.95 E14.98225
G1 X113.986 Y92.012 E14.99931
G1 X114.584 Y92.113 E15.02351
G1 X115.294 Y92.253 E15.0524
G1 X116.303 Y92.491 E15.09377
G1 X117.186 Y92.732 E15.13031
G1 X117.757 Y92.91 E15.15418
G1 X118.466 Y93.154 E15.1841
G1 X118.868 Y93.302 E15.2012
G1 X119.723 Y93.637 E15.23785
G1 X120.318 Y93.889 E15.26364
G1 X120.69 Y94.06 E15.27998
G1 X121.364 Y94.387 E15.30988
G1 X121.815 Y94.62 E15.33014
G1 X122.282 Y94.876 E15.3514
G1 X122.698 Y95.117 E15.37059
G1 X123.724 Y95.751 E15.41872
G1 X124.277 Y96.117 E15.44519
G1 X124.838 Y96.509 E15.47251
G1 X125.222 Y96.795 E15.49162
G1 X125.832 Y97.272 E15.52252
G1 X126.231 Y97.6 E15.54314
G1 X126.652 Y97.965 E15.56538
G1 X127.149 Y98.416 E15.59216
G1 X127.906 Y99.156 E15.63442
G1 X128.439 Y99.709 E15.66507
G1 X129.1 Y100.448 E15.70464
G1 X129.444 Y100.861 E15.72609
G1 X130 Y101.564 E15.76187
G1 X130.438 Y102.147 E15.79097
G1 X130.727 Y102.559 E15.81106
G1 X131.238 Y103.342 E15.84838
G1 X131.687 Y104.078 E15.88279
G1 X132.122 Y104.869 E15.91881
G1 X132.573 Y105.926 E15.96468
G1 X132.699 Y106.275 E15.97949
G1 X132.968 Y107.137 E16.01553
G1 X133.159 Y108.02 E16.05159
G1 X133.276 Y108.974 E16.08995
G1 X133.307 Y109.386 E16.10644
G1 X133.335 Y110.288 E16.14246
G1 X133.283 Y111.19 E16.17852
G1 X133.151 Y112.083 E16.21455
G1 X132.819 Y113.357 E16.26709
G1 X132.671 Y113.804 E16.28589
G1 X132.35 Y114.648 E16.32193
G1 X131.955 Y115.46 E16.35797
G1 X131.729 Y115.854 E16.3761
G1 X131.447 Y116.323 E16.39794
G1 X131.192 Y116.727 E16.41701
G1 X130.575 Y117.652 E16.46138
G1 X130.107 Y118.297 E16.49319
G1 X129.577 Y118.971 E16.52741
G1 X129.312 Y119.294 E16.54409
G1 X128.705 Y119.996 E16.58113
G1 X128.354 Y120.38 E16.60189
G1 X128.057 Y120.691 E16.61906
G1 X127.431 Y121.311 E16.65422
G1 X126.903 Y121.805 E16.68308
G1 X126.469 Y122.188 E16.70618
G1 X125.774 Y122.768 E16.74231
G1 X125.312 Y123.136 E16.76589
G1 X124.885 Y123.452 E16.78709
G1 X124.263 Y123.887 E16.81738
G1 X123.936 Y124.106 E16.83309
G1 X123.162 Y124.604 E16.86982
G1 X122.548 Y124.975 E16.89846
G1 X122.152 Y125.198 E16.91659
G1 X121.533 Y125.528 E16.94459
G1 X121.118 Y125.737 E16.96314
G1 X120.641 Y125.964 E16.98422
G1 X120.183 Y126.169 E17.00425
G1 X119.437 Y126.48 E17.03651
G1 X118.667 Y126.776 E17.06943
G1 X118.29 Y126.909 E17.08539
G1 X117.436 Y127.187 E17.12123
G1 X116.535 Y127.452 E17.15872
G1 X115.716 Y127.656 E17.1924
G1 X114.644 Y127.877 E17.23609
G1 X113.983 Y127.991 E17.26286
G1 X113.058 Y128.119 E17.30013
G1 X112.678 Y128.164 E17.3154
G1 X112.006 Y128.226 E17.34234
G1 X111.493 Y128.26 E17.36286
G1 X110.462 Y128.299 E17.40404
G1 X109.855 Y128.301 E17.42826
G1 X108.365 Y128.256 E17.48776
G1 X85.813 Y126.882 E18.38953
G1 X84.977 Y126.82 E18.42299
G1 X83.765 Y126.656 E18.4718
G1 X83.299 Y126.564 E18.49076
G1 X82.422 Y126.35 E18.52679
G1 X81.567 Y126.059 E18.56284
G1 X80.963 Y125.801 E18.58905
G1 X80.605 Y125.634 E18.60482
G1 X79.804 Y125.216 E18.64088
G1 X79.044 Y124.729 E18.6769
G1 X78.361 Y124.204 E18.71129
G1 X78.038 Y123.933 E18.72812
G1 X77.373 Y123.322 E18.76416
G1 X76.764 Y122.655 E18.80021
G1 X76.196 Y121.908 E18.83766
G1 X75.923 Y121.512 E18.85686
G1 X75.444 Y120.747 E18.89288
G1 X75.034 Y119.942 E18.92894
G1 X74.735 Y119.209 E18.96054
G1 X74.599 Y118.835 E18.97642
G1 X74.328 Y117.973 E19.01248
G1 X74.156 Y117.211 E19.04366
G1 X74.099 Y116.904 E19.05612
G1 X73.974 Y116.01 E19.09215
G1 X73.933 Y115.369 E19.11779
G1 X73.918 Y114.73 E19.1433
G1 X73.919 Y105.608 E19.50738
G1 F1500 E14.50738
;MESH:3DBenchy.stl
G0 F6000 X102.537 Y108.463
G0 X102.831 Y110.755
G1 F1500 E19.50738
G0 F6000 X102.727 Y111.278
;TYPE:WALL-INNER
G1 F1200 X103.144 Y111.271 E19.52402
G1 X103.504 Y111.221 E19.53853
G1 X103.698 Y111.111 E19.54743
G1 X103.88 Y110.824 E19.561
G1 X104 Y110.348 E19.58059
G1 X104.018 Y109.98 E19.59529
G1 X103.999 Y109.495 E19.61467
G1 X103.921 Y109.182 E19.62754
G1 X103.798 Y108.894 E19.64004
G1 X103.681 Y108.776 E19.64667
G1 X103.501 Y108.71 E19.65432
G1 X103.222 Y108.664 E19.66561
G1 X102.725 Y108.648 E19.68546
G1 X102.727 Y111.278 E19.79042
G0 F6000 X102.342 Y111.623
;TYPE:WALL-OUTER
G1 F1200 X102.424 Y111.697 E19.79483
G1 X102.741 Y111.678 E19.80751
G1 X103.175 Y111.67 E19.82483
G1 X103.635 Y111.607 E19.84336
G1 X103.966 Y111.419 E19.85856
G1 X104.215 Y111.092 E19.87496
G1 X104.343 Y110.69 E19.8918
G1 X104.398 Y110.395 E19.90378
G1 X104.418 Y110 E19.91956
G1 X104.397 Y109.437 E19.94205
G1 X104.301 Y109.055 E19.95777
G1 X104.136 Y108.667 E19.9746
G1 X103.929 Y108.458 E19.98634
G1 X103.736 Y108.343 E19.9953
G1 X103.261 Y108.265 E20.01452
G1 X102.444 Y108.239 E20.04714
G1 X102.324 Y108.304 E20.05259
G1 X102.33 Y111.212 E20.16865
G1 X102.31 Y111.532 E20.18145
G1 X102.342 Y111.623 E20.1853
G0 F6000 X102.582 Y111.422
G0 X102.831 Y110.755
G0 X103.127 Y110.872
;TYPE:SKIN
G1 F1006.3 X103.421 Y110.809 E20.19961
G1 X103.509 Y110.673 E20.20732
G1 X103.603 Y110.293 E20.22595
G1 F997.9 X103.616 Y109.938 E20.243
G1 X103.602 Y109.554 E20.26144
G1 F1004.2 X103.459 Y109.12 E20.28324
G1 X103.126 Y109.054 E20.29943
G1 F1006.3 X103.127 Y110.872 E20.38596
G1 F1500 E15.38596
G0 F6000 X102.831 Y110.755
G0 X104.15 Y110.525
G0 X105.955 Y110.868
G0 X108.275 Y111.828
;TYPE:WALL-INNER
G1 F1500 E20.38596
G1 F1200 X108.456 Y111.534 E20.39974
G1 X108.748 Y111.029 E20.42302
G1 X108.943 Y110.762 E20.43622
G1 X108.786 Y110.526 E20.44753
G1 X108.563 Y110.122 E20.46595
G1 X108.219 Y109.527 E20.49338
G1 X108.093 Y109.134 E20.50985
